X:1
T:Title
%%score ( 1 2 3 ) { ( 4 7 ) | ( 5 6 ) }
L:1/8
Q:1/4=110
M:4/4
K:Ab
V:1 treble nm="Grand Piano, Staff 1"
V:2 treble 
V:3 treble 
V:4 bass nm="Choir Pad, Glad Day"
V:7 bass 
V:5 bass 
V:6 bass 
V:1
 E3 E A2 A2 | c2 A2 [Ee]4 | z2 .c2 z4 | z4 A2 z2 | E3 E A2 [EA]2 | z4 f4 | z4 .A2 c2 | B4 z4 | %8
w: By~William~Wallace~Gilchrist,~1895 * * *||||||||
 z8 |] %9
w: |
V:2
 x8 | x8 | [Ee]2 G-[GB] A2 [EG]2 | F2 [FB]2 E2- [EG]2 | x8 | [Cc]2 [EA]2 F2 A2 | %6
 [Ae]2 [Ec]2 F-[FB]EF | D2 z A [CA]4- | [CA]4 z4 |] %9
V:3
 x8 | x8 | x8 | x8 | x8 | x8 | x8 | z2 E2 z4 | x8 |] %9
V:4
 E,3 E, A,2 A,2 | C2 A,2 B,2 A,B, | C2 ED .C4 | A,2 D2 C2[K:bass] B,2 | E,3 E, A,2 A,2 | %5
 A,2[K:treble] C2 A,2 D2 | z2 E2[K:bass] z4 | A,2 G,2 A,4- | A,4 z4 |] %9
V:5
 z8 | z4 G,2 F,G, | A,2 E,2 F,2 z B, | D,2 B,,2 B,,4 | z4 z2 C,2 | F,2 E,2 D,4 | .A,4 F,2 C,D, | %7
 E,2 E,2 A,,4- | A,,4 z4 |] %9
V:6
 x8 | x8 | z4 z2 C,2 | x8 | x8 | x8 | x8 | x8 | x8 |] %9
V:7
 x8 | x8 | x8 | x6[K:bass] x2 | x8 | x2[K:treble] x6 | C2 z[K:bass] G, C2 A,2 | x8 | x8 |] %9

